X: 10819
T: Dram Behind The Curtain
R: jig
M: 6/8
K: Emajor
E2F GFG|B2c efg|gee fec|eBc BGF|
E2F GFG|B2c efg|gee fec|1 eBc BGF:|2 eBc ez2||
g2e fec|fge fec|eBB cBG|BFG FEC|E2F GFG|
B2c efg|1 gee fec|eBc cef:|2 bag az(g|g)ec BGF||

